X:117
T: DER HIMMEL IST SO TRUEBE
N: E0709B
O: Europa, Mitteleuropa, Deutschland, Hessen, Wetterau, Bettenhausen
R: Liebes - Lied, Leid, Klage
M: 6/8
L: 1/16
K: G
D2 | G4F2G4d2 | B4A2G4
AB | c4A2d4B2 | A6z4
AB | c4e2e2d2c2 | B4e2d4
B2 | d2c2B2c2B2A2 | G6z4

@@@ Tune index: 4430
